<?xml version="1.0" encoding="UTF-8"?>
<map version="1.10" tiledversion="1.11.2" orientation="orthogonal" renderorder="right-down" width="20" height="14" tilewidth="16" tileheight="16" infinite="0" nextlayerid="7" nextobjectid="4">
 <tileset firstgid="1" source="CityTileMap.tsx"/>
 <layer id="1" name="Ground" width="20" height="14">
  <data encoding="csv">
0,0,0,0,0,0,0,0,0,0,0,0,0,0,0,0,0,0,0,0,
0,2436,2436,2436,2436,2436,2436,2436,2436,2436,2436,2436,2436,2436,2436,2436,2436,2436,2436,0,
0,2436,2436,2436,2436,2436,2436,2436,2436,2436,2436,2436,2436,2436,2436,2436,2436,2436,2436,0,
0,2436,2436,2436,2436,2436,2436,2436,2436,2436,2436,2436,2436,2436,2436,2436,2436,2436,2436,0,
0,2436,2436,2436,2436,2436,2436,2436,2436,2436,2436,2436,2436,2436,2436,2436,2436,2436,2436,0,
0,2436,2436,2436,2436,2436,2436,2436,2436,2436,2436,2436,2436,2436,2436,2436,2436,2436,2436,0,
0,2436,2436,2436,2436,2436,2436,2436,2436,2436,2436,2436,2436,2436,2436,2436,2436,2436,2436,0,
0,2436,2436,2436,2436,2436,2436,2436,2436,2436,2436,2436,2436,2436,2436,2436,2436,2436,2436,0,
0,2436,2436,2436,2436,2436,2436,2436,2436,2436,2436,2436,2436,2436,2436,2436,2436,2436,2436,0,
0,2436,2436,2436,2436,2436,2436,2436,2436,2436,2436,2436,2436,2436,2436,2436,2436,2436,2436,0,
0,2436,2436,2436,2436,2436,2436,2436,2436,2436,2436,2436,2436,2436,2436,2436,2436,2436,2436,0,
0,2436,2436,2436,2436,2436,2436,2436,2436,2436,2436,2436,2436,2436,2436,2436,2436,2436,2436,0,
0,2436,2436,2436,2436,2436,2436,2436,2436,2436,2436,2436,2436,2436,2436,2436,2436,2436,2436,0,
0,0,0,0,0,0,0,0,0,2436,2436,0,0,0,0,0,0,0,0,0
</data>
 </layer>
 <layer id="2" name="Collision" width="20" height="14">
  <data encoding="csv">
2446,2450,2450,2450,2450,2450,2450,2450,2450,2450,2450,2450,2450,2450,2450,2450,2450,2450,2450,2452,
2574,0,0,0,0,0,0,0,0,0,0,0,0,0,0,0,0,0,0,2580,
2574,0,0,0,0,0,0,0,0,0,0,0,0,0,0,0,0,0,0,2580,
2574,0,0,0,0,0,0,0,0,0,0,0,0,0,0,0,0,0,0,2580,
2574,0,0,0,0,0,0,0,0,0,0,0,0,0,0,0,0,0,0,2580,
2574,0,0,0,0,0,0,0,0,0,0,0,0,0,0,0,0,0,0,2580,
2574,0,0,0,0,0,0,0,0,0,0,0,0,0,0,0,0,0,0,2580,
2574,0,0,0,0,0,0,0,0,0,0,0,0,0,0,0,0,0,0,2580,
2574,0,0,0,0,0,0,0,0,0,0,0,0,0,0,0,0,0,0,2580,
2574,0,0,0,0,0,0,0,0,0,0,0,0,0,0,0,0,0,0,2580,
2574,0,0,0,0,0,0,0,0,0,0,0,0,0,0,0,0,0,0,2580,
2574,0,0,0,0,0,0,0,0,0,0,0,0,0,0,0,0,0,0,2580,
2574,0,0,0,0,0,0,0,0,0,0,0,0,0,0,0,0,0,0,2580,
2830,2834,2834,2834,2834,2834,2834,2834,2836,0,0,2830,2834,2834,2834,2834,2834,2834,2834,2836
</data>
 </layer>
 <layer id="3" name="Buildings" width="20" height="14" locked="1">
  <data encoding="csv">
0,0,0,0,0,0,0,0,0,0,0,0,0,0,0,0,0,0,0,0,
0,0,0,0,0,0,0,0,0,0,0,0,0,0,0,0,0,0,0,0,
0,0,0,0,0,0,0,0,0,0,0,0,0,0,0,0,0,0,0,0,
0,0,0,0,0,0,0,0,0,0,0,0,0,0,0,0,0,0,0,0,
0,0,0,0,0,0,0,0,0,0,0,0,0,0,0,0,0,0,0,0,
0,0,0,0,0,0,0,0,0,0,0,0,0,0,0,0,0,0,0,0,
0,0,0,0,0,0,0,0,0,0,0,0,0,0,0,0,0,0,0,0,
0,0,0,0,0,0,0,0,0,0,0,0,0,0,0,0,0,0,0,0,
0,0,0,0,0,0,0,0,0,0,0,0,0,0,0,0,0,0,0,0,
0,0,0,0,0,0,0,0,0,0,0,0,0,0,0,0,0,0,0,0,
0,0,0,0,0,0,0,0,0,0,0,0,0,0,0,0,0,0,0,0,
0,0,0,0,0,0,0,0,0,0,0,0,0,0,0,0,0,0,0,0,
0,0,0,0,0,0,0,0,0,0,0,0,0,0,0,0,0,0,0,0,
0,0,0,0,0,0,0,0,0,0,0,0,0,0,0,0,0,0,0,0
</data>
 </layer>
 <layer id="4" name="GroundDetails" width="20" height="14" locked="1">
  <data encoding="csv">
0,0,0,0,0,0,0,0,0,0,0,0,0,0,0,0,0,0,0,0,
0,0,0,0,0,0,0,0,0,0,0,0,0,0,0,0,0,0,0,0,
0,0,0,0,0,0,0,0,0,0,0,0,0,0,0,0,0,0,0,0,
0,0,0,0,0,0,0,0,0,0,0,0,0,0,0,0,0,0,0,0,
0,0,0,0,0,0,0,0,0,0,0,0,0,0,0,0,0,0,0,0,
0,0,0,0,0,0,0,0,0,0,0,0,0,0,0,0,0,0,0,0,
0,0,0,0,0,0,0,0,0,0,0,0,0,0,0,0,0,0,0,0,
0,0,0,0,0,0,0,0,0,0,0,0,0,0,0,0,0,0,0,0,
0,0,0,0,0,0,0,0,0,0,0,0,0,0,0,0,0,0,0,0,
0,0,0,0,0,0,0,0,0,0,0,0,0,0,0,0,0,0,0,0,
0,0,0,0,0,0,0,0,0,0,0,0,0,0,0,0,0,0,0,0,
0,0,0,0,0,0,0,0,0,0,0,0,0,0,0,0,0,0,0,0,
0,0,0,0,0,0,0,0,0,0,0,0,0,0,0,0,0,0,0,0,
0,0,0,0,0,0,0,0,0,0,0,0,0,0,0,0,0,0,0,0
</data>
 </layer>
 <layer id="5" name="AbovePlayer" width="20" height="14" locked="1">
  <data encoding="csv">
0,0,0,0,0,0,0,0,0,0,0,0,0,0,0,0,0,0,0,0,
0,0,0,0,0,0,0,0,0,0,0,0,0,0,0,0,0,0,0,0,
0,0,0,0,0,0,0,0,0,0,0,0,0,0,0,0,0,0,0,0,
0,0,0,0,0,0,0,0,0,0,0,0,0,0,0,0,0,0,0,0,
0,0,0,0,0,0,0,0,0,0,0,0,0,0,0,0,0,0,0,0,
0,0,0,0,0,0,0,0,0,0,0,0,0,0,0,0,0,0,0,0,
0,0,0,0,0,0,0,0,0,0,0,0,0,0,0,0,0,0,0,0,
0,0,0,0,0,0,0,0,0,0,0,0,0,0,0,0,0,0,0,0,
0,0,0,0,0,0,0,0,0,0,0,0,0,0,0,0,0,0,0,0,
0,0,0,0,0,0,0,0,0,0,0,0,0,0,0,0,0,0,0,0,
0,0,0,0,0,0,0,0,0,0,0,0,0,0,0,0,0,0,0,0,
0,0,0,0,0,0,0,0,0,0,0,0,0,0,0,0,0,0,0,0,
0,0,0,0,0,0,0,0,0,0,0,0,0,0,0,0,0,0,0,0,
0,0,0,0,0,0,0,0,0,0,0,0,0,0,0,0,0,0,0,0
</data>
 </layer>
 <objectgroup id="6" name="Spawns">
  <object id="1" name="PlayerSpawn" x="160.097" y="196.231"/>
  <object id="2" name="HouseFromTown" x="160.045" y="196.278"/>
  <object id="3" name="DoorToTown" x="143.917" y="207.917" width="32.0625" height="16"/>
 </objectgroup>
</map>
