<?xml version="1.0" encoding="UTF-8"?>
<map version="1.10" tiledversion="1.11.2" orientation="orthogonal" renderorder="right-down" width="50" height="50" tilewidth="16" tileheight="16" infinite="0" nextlayerid="5" nextobjectid="2">
 <tileset firstgid="1" source="CityTileMap.tsx"/>
 <layer id="1" name="Ground" width="50" height="50">
  <data encoding="csv">
3270,3270,3270,3270,3270,3270,3270,2684357142,2684357142,2684356996,2684356996,2684356998,2684356996,2684357124,2684356996,2684356998,2684356996,2684356996,2684357142,2684357142,2582,1363,1364,1365,2582,2582,2582,1160,1161,1162,2582,2436,2436,2436,2436,2436,2436,2436,2436,2436,2436,2582,2582,0,0,0,0,0,0,0,
3270,3270,3270,3270,3270,3270,3270,2684357142,2684357142,2684356996,2684356996,2684356998,2684356996,2684357124,2684356996,2684356998,2684356996,2684356996,2684357142,2684357142,2582,1427,1428,1429,2582,2582,2582,1224,1225,1226,2582,2436,2436,2436,2436,2436,2436,2436,2436,2436,2436,2582,2582,0,0,0,0,0,0,0,
3270,3270,3270,3270,3270,3270,3270,2684357142,2684357142,2684356996,2684356996,2684356998,2684356996,2562,2684356996,2684356998,2684356996,2684356996,2582,2582,2582,2582,2582,2582,2582,2582,2582,2582,2582,2582,2582,2436,2436,2436,2436,2436,2436,2436,2436,2436,2436,2582,2582,0,0,0,0,0,0,0,
3270,3270,3270,3270,3270,3270,3270,2684357142,2684357142,2684356996,2684356996,2684356998,2684356996,2562,2684356996,2684356998,2684356996,2684356996,2582,2582,2436,2436,2436,2436,2436,2436,2436,2436,2436,2436,2436,2436,2436,2436,2436,2436,2436,2436,2436,2436,2436,2582,2582,0,0,0,0,0,0,0,
3270,3270,3270,3270,3270,3270,3270,2684357142,2684357142,2684356996,2684356996,2684356998,2684356996,2562,2684356996,2684356998,2684356996,2684356996,2582,2582,2436,2436,2436,2436,2436,2436,2436,2436,2436,2436,2436,2436,2436,2436,2436,2436,2436,2436,2436,2436,2436,2582,2582,0,0,0,0,0,0,0,
3270,3270,3270,3270,3270,3270,3270,2684357142,2684357142,2684356996,2684356996,2684356998,2684356996,2562,2684356996,2684356998,2684356996,2684356996,2582,2582,2436,2566,2436,2436,2582,2582,2692,2692,2692,2692,2582,2582,2582,2582,2582,2582,2582,2436,2436,2436,2436,2582,2582,0,0,0,0,0,0,0,
3270,3270,3270,3270,3270,3270,3270,2684357142,2684357142,2684356996,2684356996,2684356998,2684356996,2684357124,2684356996,2684356998,2684356996,2684356996,2684357142,2684357142,2436,2566,2436,2436,2582,2582,2692,2692,2692,2692,2582,2582,2582,2582,2582,2582,2582,2436,2566,2436,2436,2582,2582,0,0,0,0,0,0,0,
3221228054,3221228054,3221228054,3221228054,3221228054,3221228054,3221228054,3221228054,2684357142,2684356996,2684356996,2684356998,2684356996,2684357124,2684356996,2684356998,2684356996,2684356996,2684357142,2684357142,2582,2582,2582,2582,2582,2582,2436,2436,2436,2436,2436,2436,2436,2436,2582,2582,3221228054,2436,2566,2436,2436,2582,2582,0,0,0,0,0,0,0,
3221228054,3221228054,3221228054,3221228054,3221228054,3221228054,3221228054,3221228054,2582,3221228164,3221228164,3221228164,3221228164,3221228164,3221228164,3221228164,3221228164,3221228164,2582,2582,2582,2582,2582,2582,2582,2582,2684357126,2684357126,2684357126,2684357126,2684357126,2436,2436,2436,2436,2582,3221228054,3221228054,3221228054,3221228054,2582,2582,2582,0,0,0,0,0,0,0,
3221227908,3221227908,3221227908,3221227908,3221227908,3221227908,3221227908,3221227908,2684357252,2436,2436,2436,2436,2436,2436,2436,2436,2436,2684357252,2436,2436,2436,3221227908,3221227908,3221227908,3221227908,2436,2436,2436,2436,2436,2436,2436,2436,2436,2436,3221227908,3221227908,3221227908,3221227908,3221227908,3221227908,3221227908,0,0,0,0,0,0,0,
3221227908,3221227908,3221227908,3221227908,3221227908,3221227908,3221227908,3221227908,2684357252,2436,2436,2436,2436,2436,2436,2436,2436,2436,2684357252,2436,2436,2436,3221227908,3221227908,3221227908,3221227908,2436,2436,2436,2436,2436,2436,2436,2436,2436,2436,3221227908,3221227908,3221227908,3221227908,3221227908,3221227908,3221227908,0,0,0,0,0,0,0,
3221227910,3221227910,3221227910,3221227910,3221227910,3221227910,3221227910,3221227910,2684357252,2436,2436,2436,2436,2436,2436,2436,2436,2436,2684357252,2438,2438,2438,3221227910,3221227910,3221227910,3221227910,2438,2438,2438,2438,2438,2438,2438,2438,2438,2438,3221227910,3221227910,3221227910,3221227910,3221227910,3221227910,3221227910,0,0,0,0,0,0,0,
3221227908,3221227908,3221227908,3221227908,3221227908,3221227908,3221227908,3221227908,2684357252,2436,2436,2436,2436,2436,2436,2436,2436,2436,2684357252,2436,2436,2436,3221227908,3221227908,3221227908,3221227908,2436,2436,2436,2436,2436,2436,2436,2436,2436,2436,3221227908,3221227908,3221227908,3221227908,3221227908,3221227908,3221227908,0,0,0,0,0,0,0,
3221228036,3221228036,3221228036,3221228036,3221228036,3221228036,3221228036,3221228036,2684357252,2436,2436,2436,2436,2436,2436,2436,2436,2436,2684357252,2564,2564,2564,3221228036,3221228036,3221228036,3221228036,2564,2564,2564,2564,2564,2564,2564,2564,2564,2564,3221228036,3221228036,3221228036,3221228036,3221228036,3221228036,3221228036,0,0,0,0,0,0,0,
3221227908,3221227908,3221227908,3221227908,3221227908,3221227908,3221227908,3221227908,2684357252,2436,2436,2436,2436,2436,2436,2436,2436,2436,2684357252,2436,2436,2436,3221227908,3221227908,3221227908,3221227908,2436,2436,2436,2436,2436,2436,2436,2436,2436,2436,3221227908,3221227908,3221227908,3221227908,3221227908,3221227908,3221227908,0,0,0,0,0,0,0,
3221227910,3221227910,3221227910,3221227910,3221227910,3221227910,3221227910,3221227910,2684357252,2436,2436,2436,2436,2436,2436,2436,2436,2436,2684357252,2438,2438,2438,3221227910,3221227910,3221227910,3221227910,2438,2438,2438,2438,2438,2438,2438,2438,2438,2438,3221227910,3221227910,3221227910,3221227910,3221227910,3221227910,3221227910,0,0,0,0,0,0,0,
3221227908,3221227908,3221227908,3221227908,3221227908,3221227908,3221227908,3221227908,2684357252,2436,2436,2436,2436,2436,2436,2436,2436,2436,2684357252,2436,2436,2436,3221227908,3221227908,3221227908,3221227908,2436,2436,2436,2436,2436,2436,2436,2436,2436,2436,3221227908,3221227908,3221227908,3221227908,3221227908,3221227908,3221227908,0,0,0,0,0,0,0,
3221227908,3221227908,3221227908,3221227908,3221227908,3221227908,3221227908,3221227908,2684357252,2436,2436,2436,2436,2436,2436,2436,2436,2436,2684357252,2436,2436,2436,3221227908,3221227908,3221227908,3221227908,2436,2436,2436,2436,2436,2436,2436,2436,2436,2436,3221227908,3221227908,3221227908,3221227908,3221227908,3221227908,3221227908,0,0,0,0,0,0,0,
3221228054,3221228054,3221228054,3221228054,3221228054,3221228054,3221228054,3221228054,2582,2692,2692,2692,2692,2692,2692,2692,2692,2692,2582,2582,2582,2582,3221228054,3221228054,3221228054,3221228054,2582,2582,2582,2582,2582,2582,2582,2582,2582,2582,3221228054,3221228054,3221228054,3221228054,3221228054,3221228054,3221228054,0,0,0,0,0,0,0,
3221228054,3221228054,3221228054,3221228054,3221228054,3221228054,3221228054,3221228054,2582,2570,2436,2440,2436,2562,2436,2440,2436,2566,2582,2582,2582,2582,3221228054,3221228054,3221228054,3221228054,2582,2582,2582,2582,2582,2582,2582,2582,2582,2582,3221228054,3221228054,3221228054,3221228054,3221228054,3221228054,3221228054,0,0,0,0,0,0,0,
3270,3270,3270,3270,3270,3270,3270,2582,2582,2570,2436,2440,2436,2562,2436,2440,2436,2566,2582,2582,3270,3270,3270,3270,3270,3270,3270,3270,3270,3270,3270,3270,3270,3270,3270,3270,3270,3270,3270,3270,3270,3270,3270,0,0,0,0,0,0,0,
3270,3270,3270,3270,3270,3270,3270,2582,2582,2570,2436,2440,2436,2562,2436,2440,2436,2566,2582,2582,3270,3270,3270,3270,3270,3270,3270,3270,3270,3270,3270,3270,3270,3270,3270,3270,3270,3270,3270,3270,3270,3270,3270,0,0,0,0,0,0,0,
3270,3270,3270,3270,3270,3270,3270,2582,2582,2570,2436,2440,2436,2562,2436,2440,2436,2566,2582,2582,3270,3270,3270,3270,3270,3270,3270,3270,3270,3270,3270,3270,3270,3270,3270,3270,3270,3270,3270,3270,3270,3270,3270,0,0,0,0,0,0,0,
3270,3270,3270,3270,3270,3270,3270,2582,2582,2570,2436,2440,2436,2562,2436,2440,2436,2566,2582,2582,3270,3270,3270,3270,3270,3270,3270,3270,3270,3270,3270,3270,3270,3270,3270,3270,3270,3270,3270,3270,3270,3270,3270,0,0,0,0,0,0,0,
3270,3270,3270,3270,3270,3270,3270,2582,2582,2570,2436,2440,2436,2562,2436,2440,2436,2566,2582,2582,3270,3270,3270,3270,3270,3270,3270,3270,3270,3270,3270,3270,3270,3270,3270,3270,3270,3270,3270,3270,3270,3270,3270,0,0,0,0,0,0,0,
3270,3270,3270,3270,3270,3270,3270,2582,2582,2570,2436,2440,2436,2562,2436,2440,2436,2566,2582,2582,3270,3270,3270,3270,3270,3087,3089,3089,3089,3089,3089,3089,3089,3089,3089,3089,3089,3089,3089,3089,3089,3089,3089,0,0,0,0,0,0,0,
3270,3270,3270,3270,3270,3270,3270,2582,2582,2570,2436,2440,2436,2562,2436,2440,2436,2566,2582,2582,3270,3270,3270,3270,3270,3215,3217,3345,3345,3345,3345,3345,3345,3345,3345,3345,3345,3217,3217,3345,3345,3345,3345,0,0,0,0,0,0,0,
3270,3270,3270,3270,3270,3270,3270,2582,2582,2570,2436,2440,2436,2562,2436,2440,2436,2566,2582,2582,3089,3089,3089,3089,3089,3217,3219,3270,3270,3270,3270,3270,3270,3270,3270,3270,3270,3215,3219,3270,3270,3270,3270,0,0,0,0,0,0,0,
3270,3270,3270,3270,3270,3270,3270,2582,2582,2570,2436,2440,2436,2562,2436,2440,2436,2566,2582,2582,3345,3345,3345,3345,3345,3345,3347,3270,3074,3076,3078,3080,3078,3080,3078,3080,3082,3215,3219,3270,3270,3270,3270,0,0,0,0,0,0,0,
3270,3270,3270,3270,3270,3270,3270,2582,2582,2570,2436,2440,2436,2562,2436,2440,2436,2566,2582,2582,3270,3270,3270,3270,3270,3270,3270,3270,3202,3268,3268,3268,3268,3268,3268,3268,3210,3215,3219,3270,3270,3270,3270,0,0,0,0,0,0,0,
3270,3270,3270,3270,3270,3270,3270,2582,2582,2570,2436,2440,2436,2562,2436,2440,2436,2566,2582,2582,3270,3270,3270,3270,3270,3270,3270,3270,3330,3268,3268,3268,3268,3268,3268,3268,3210,3215,3219,3270,3270,3270,3270,0,0,0,0,0,0,0,
3270,3270,3270,3270,3270,3270,3270,2582,2582,2570,2436,2440,2436,2562,2436,2440,2436,2566,2582,2582,3270,3270,3270,3270,3270,3270,3270,3270,3458,3268,3268,3268,3268,3268,3268,3268,3338,3215,3219,3270,3270,3270,3270,0,0,0,0,0,0,0,
3270,3270,3270,3270,3270,3270,3270,2582,2582,2570,2436,2440,2436,2562,2436,2440,2436,2566,2582,2582,3270,3270,3270,3270,3270,3270,3270,3270,3330,3268,3268,3268,3268,3268,3268,3268,3466,3215,3219,3270,3270,3270,3270,0,2819,2819,0,0,0,0,
3270,3270,3270,3270,3270,3270,3270,2582,2582,2570,2436,2440,2436,2562,2436,2440,2436,2566,2582,2582,3270,3270,3270,3270,3270,3270,3270,3270,3586,3588,3590,3592,3588,3590,3592,3592,3594,3215,3219,3270,3270,3270,3270,0,0,0,0,0,0,0,
3270,3270,3270,3270,3270,3270,3270,2582,2582,2570,2436,2440,2436,2562,2436,2440,2436,2566,2582,2582,3270,3270,3270,3270,3270,3270,3270,3270,3270,3270,3270,3270,3270,3270,3270,3270,3270,3215,3219,3270,3270,3270,3270,0,0,0,0,0,0,0,
3270,3270,3270,3270,3270,3270,3270,2582,2582,2570,2436,2440,2436,2562,2436,2440,2436,2566,2582,2582,3270,3270,3270,3270,3270,3270,3270,3270,3270,3270,3270,3270,3270,3270,3270,3270,3270,3215,3219,3270,3270,3270,3270,0,0,0,0,0,0,0,
3270,3270,3270,3270,3270,3270,3270,2582,2582,2570,2436,2440,2436,2562,2436,2440,2436,2566,2582,2582,3270,3270,3270,3270,3270,3270,3270,3270,3270,3270,3270,3270,3270,3270,3270,3270,3270,3215,3219,3270,3270,3270,3270,0,0,0,0,0,0,0,
3270,3270,3270,3270,3270,3270,3270,2582,2582,2570,2436,2440,2436,2562,2436,2440,2436,2566,2582,2582,3270,3270,3270,3270,3270,3270,3270,3270,3270,3270,3270,3270,3270,3270,3270,3270,3270,3215,3219,3270,3270,3270,3270,0,0,0,0,0,0,0,
3270,3270,3270,3270,3270,3270,3270,2582,2582,2570,2436,2440,2436,2562,2436,2440,2436,2566,2582,2582,3270,3270,3270,3270,3270,3270,3270,3270,3270,3270,3270,3270,3270,3270,3270,3270,3270,3215,3219,3270,3270,3270,3270,0,0,0,0,0,0,0,
3270,3270,3270,3270,3270,3270,3270,2582,2582,2570,2436,2440,2436,2562,2436,2440,2436,2566,2582,2582,3270,3270,3270,3270,3270,3270,3270,3270,3270,3270,3270,3270,3270,3270,3270,3270,3270,3215,3219,3270,3270,3270,3270,0,0,0,0,0,0,0,
0,0,0,0,0,0,0,0,0,0,0,0,0,0,0,0,0,0,0,0,0,0,0,0,0,0,0,0,0,0,0,0,0,0,0,0,0,0,0,0,0,0,0,0,0,0,0,0,0,0,
0,0,0,0,0,0,0,0,0,0,0,0,0,0,0,0,0,0,0,0,0,0,0,0,0,0,0,0,0,0,0,0,0,0,0,0,0,0,0,0,0,0,0,0,0,0,0,0,0,0,
0,0,0,0,0,0,0,0,0,0,0,0,0,0,0,0,0,0,0,0,0,0,0,0,0,0,0,0,0,0,0,0,0,0,0,0,0,0,0,0,0,0,0,0,0,0,0,0,0,0,
0,0,0,0,0,0,0,0,0,0,0,0,0,0,0,0,0,0,0,0,0,0,0,0,0,0,0,0,0,0,0,0,0,0,0,0,0,0,0,0,0,0,0,0,0,0,0,0,0,0,
0,0,0,0,0,0,0,0,0,0,0,0,0,0,0,0,0,0,0,0,0,0,0,0,0,0,0,0,0,0,0,0,0,0,0,0,0,0,0,0,0,0,0,0,0,0,0,0,0,0,
0,0,0,0,0,0,0,0,0,0,0,0,0,0,0,0,0,0,0,0,0,0,0,0,0,0,0,0,0,0,0,0,0,0,0,0,0,0,0,0,0,0,0,0,0,0,0,0,0,0,
0,0,0,0,0,0,0,0,0,0,0,0,0,0,0,0,0,0,0,0,0,0,0,0,0,0,0,0,0,0,0,0,0,0,0,0,0,0,0,0,0,0,0,0,0,0,0,0,0,0,
0,0,0,0,0,0,0,0,0,0,0,0,0,0,0,0,0,0,0,0,0,0,0,0,0,0,0,0,0,0,0,0,0,0,0,0,0,0,0,0,0,0,0,0,0,0,0,0,0,0,
0,0,0,0,0,0,0,0,0,0,0,0,0,0,0,0,0,0,0,0,0,0,0,0,0,0,0,0,0,0,0,0,0,0,0,0,0,0,0,0,0,0,0,0,0,0,0,0,0,0,
0,0,0,0,0,0,0,0,0,0,0,0,0,0,0,0,0,0,0,0,0,0,0,0,0,0,0,0,0,0,0,0,0,0,0,0,0,0,0,0,0,0,0,0,0,0,0,0,0,0
</data>
 </layer>
 <layer id="2" name="Collision" width="50" height="50">
  <data encoding="csv">
0,0,0,0,0,0,0,0,0,0,0,0,0,0,0,0,0,0,0,0,0,0,0,0,0,0,0,0,0,0,0,0,0,0,0,0,0,0,0,0,0,0,0,0,0,0,0,0,0,0,
0,0,0,0,0,0,0,0,1755,1756,0,0,0,0,0,0,0,2147485404,2147485403,0,0,0,0,0,0,0,0,0,0,0,0,0,0,0,0,0,0,0,0,0,0,0,0,0,0,0,0,0,0,0,
0,0,0,0,0,0,0,0,0,0,0,0,0,0,0,0,0,0,0,0,0,0,0,0,0,0,0,0,0,0,0,0,0,0,0,0,0,0,0,0,0,0,0,0,0,0,0,0,0,0,
0,0,0,0,0,0,0,0,0,0,0,0,0,0,0,0,0,0,0,0,0,0,0,0,0,0,0,0,0,0,0,0,0,0,0,0,0,0,0,0,0,0,0,0,0,0,0,0,0,0,
0,0,0,0,0,0,0,0,0,0,0,0,0,0,0,0,0,0,0,0,1936,1937,0,0,0,0,0,0,0,0,0,0,0,0,0,0,0,0,0,0,0,0,0,0,0,0,0,0,0,0,
0,0,0,0,0,0,0,0,0,0,0,0,0,0,0,0,0,1303,1304,0,2000,2001,0,0,0,0,0,0,0,0,1678,0,0,0,0,0,0,1073743892,1073743893,0,0,0,0,0,0,0,0,0,0,0,
0,0,0,0,0,0,0,1498,1303,1304,0,0,0,0,0,0,0,1367,1368,2147485146,2064,2065,0,0,0,0,0,0,0,0,1947,0,0,0,0,0,0,1073743828,1073743829,0,0,0,0,0,0,0,0,0,0,0,
0,0,0,0,0,0,0,1562,1563,1368,0,0,0,0,0,0,0,1431,2147485211,2147485210,0,0,0,0,0,0,0,0,1800,1801,1802,1803,0,0,0,0,0,1073743764,1073743765,0,0,0,0,0,0,0,0,0,0,0,
1073743513,0,1926,1926,0,0,0,1566,1431,1432,0,0,0,0,0,0,0,0,0,1568,0,0,0,0,1990,1073743513,0,0,1864,1865,1866,1867,0,0,0,1073743513,0,0,0,0,0,0,0,0,0,0,0,0,0,0,
0,0,0,0,0,0,0,0,0,0,0,0,0,0,0,0,0,0,0,0,0,0,0,0,0,0,0,0,0,0,0,0,0,0,0,0,0,0,0,0,0,0,0,0,0,0,0,0,0,0,
0,0,0,0,0,0,0,0,0,0,0,0,0,0,0,0,0,0,0,0,0,0,0,0,0,0,0,0,1474,1475,1476,1477,0,0,0,0,0,0,0,0,0,0,0,0,0,0,0,0,0,0,
0,0,0,0,0,0,0,0,0,0,0,0,0,0,0,0,0,0,0,1801,1802,1803,0,1545,1546,1547,0,0,1538,1539,1540,1541,0,0,0,0,0,0,0,0,0,0,0,0,0,0,0,0,0,0,
0,0,0,0,0,0,0,0,0,0,0,0,0,0,0,0,0,0,0,1865,1866,1867,0,1609,1610,1611,0,0,1602,1603,1604,1605,0,0,0,0,0,0,0,0,0,0,0,0,0,0,0,0,0,0,
0,0,0,0,0,0,0,0,0,0,0,0,0,0,0,0,0,0,0,0,0,0,0,0,0,0,0,0,0,0,0,0,0,0,0,0,0,0,0,0,0,0,0,0,0,0,0,0,0,0,
0,0,0,0,0,0,0,0,0,0,0,0,0,0,0,0,0,0,0,0,0,0,0,0,0,0,0,0,0,0,0,0,0,0,0,0,0,0,0,0,0,0,0,0,0,0,0,0,0,0,
0,0,0,0,0,0,0,0,0,0,0,0,0,0,0,0,0,0,0,0,0,0,0,0,0,0,0,0,0,0,0,0,0,0,0,0,0,0,0,0,0,0,0,0,0,0,0,0,0,0,
0,0,0,0,0,0,0,0,0,0,0,0,0,0,0,0,0,0,0,0,0,0,0,0,0,0,0,0,0,0,0,0,0,0,0,0,0,0,0,0,0,0,0,0,0,0,0,0,0,0,
0,0,0,0,0,0,0,1303,1303,1304,0,0,0,0,0,0,1303,1303,1304,0,2122,2123,2124,2125,2126,0,0,0,0,0,0,0,0,0,0,0,0,0,0,0,0,0,0,0,0,0,0,0,0,0,
1689,0,1926,0,0,0,0,1566,1367,1368,0,0,0,0,0,0,1367,1367,1368,1568,2123,2124,2125,2126,1734,1689,2179,0,0,0,0,0,0,0,0,1689,0,0,0,0,0,0,0,0,0,0,0,0,0,0,
0,0,0,0,0,0,0,1431,1563,1936,1937,1938,0,0,0,0,1431,1431,2147485211,2122,2123,2124,2125,2126,0,0,0,0,0,0,0,0,0,0,0,0,0,0,0,0,0,0,0,0,0,0,0,0,0,0,
0,0,0,0,0,0,0,0,0,2000,2001,2002,0,0,0,0,0,0,2122,2123,2124,2125,2126,2190,2074,2075,2076,0,0,0,0,0,0,0,0,0,0,0,0,0,0,0,0,0,0,0,0,0,0,0,
0,0,0,0,0,0,0,0,0,2064,2065,2066,0,0,0,0,0,2122,2123,2124,2125,2126,2126,0,2138,2139,2140,0,0,0,0,0,0,0,0,0,0,0,0,0,0,0,0,0,0,0,0,0,0,0,
0,0,0,0,0,0,2122,2123,2124,2125,2126,0,1551,1551,1938,0,2122,2123,2124,2125,2126,2126,2190,0,0,0,0,0,0,2074,2075,2076,0,0,0,0,0,0,0,0,0,0,0,0,0,0,0,0,0,0,
0,0,0,0,0,0,2186,2187,2188,2189,2190,2126,1551,1551,2002,0,2122,2123,2124,2125,2126,2190,2074,2075,2076,0,0,0,0,2138,2139,2140,0,0,0,0,0,0,0,0,0,0,0,0,0,0,0,0,0,0,
0,0,0,0,0,0,2186,2187,1755,1756,2190,2190,1551,1551,2066,0,2186,2147485404,2147485403,2189,2190,0,2138,2139,2140,0,0,0,0,0,0,0,0,0,0,0,0,0,0,0,0,0,0,0,0,0,0,0,0,0,
0,0,0,0,0,0,0,2186,2187,2188,2189,2190,0,0,0,0,0,0,0,0,0,0,0,0,0,0,0,0,0,0,0,0,0,0,0,0,0,0,0,0,0,0,0,0,0,0,0,0,0,0,
0,0,0,0,0,0,0,0,0,0,0,0,0,0,0,0,0,0,0,0,0,0,0,0,0,0,0,0,0,0,0,0,0,0,0,0,0,0,0,0,0,0,0,0,0,0,0,0,0,0,
0,0,0,0,0,0,0,0,0,0,0,0,0,0,0,0,0,0,0,0,0,0,0,0,0,0,0,0,0,0,0,0,0,0,0,0,0,0,0,0,0,0,0,0,0,0,0,0,0,0,
0,0,0,0,0,0,0,0,0,0,0,0,0,0,0,0,0,0,0,0,0,0,0,0,0,0,0,0,0,0,0,0,0,0,0,0,0,0,0,0,0,0,0,0,0,0,0,0,0,0,
0,0,0,0,0,0,0,0,0,0,0,0,0,0,0,0,0,0,0,0,0,0,0,0,0,0,0,0,0,0,0,0,0,0,0,0,0,0,0,0,0,0,0,0,0,0,0,0,0,0,
0,0,0,0,0,0,0,0,0,0,0,0,0,0,0,0,1073743570,1073743571,0,0,0,0,0,0,0,0,0,0,0,0,0,0,0,0,0,0,0,0,0,0,0,0,0,0,0,0,0,0,0,0,
0,0,0,0,0,0,0,0,0,0,0,0,0,0,0,0,1073743506,1073743507,0,0,0,2074,2075,2076,0,0,0,0,0,0,0,0,0,0,0,0,0,0,0,0,0,0,0,0,0,0,0,0,0,0,
0,0,0,0,0,0,2122,2123,2124,2125,2126,0,0,0,0,0,1073743442,1073743443,0,0,0,2138,2139,2140,0,0,0,0,0,0,0,0,0,0,0,0,0,0,0,0,0,0,0,0,0,0,0,0,0,0,
0,0,0,0,0,0,2122,2123,2124,2125,2126,0,0,0,0,0,0,0,0,0,0,0,0,2074,2075,2076,0,0,0,0,0,0,0,0,0,0,0,0,0,0,0,0,0,0,0,0,0,0,0,0,
0,0,0,0,0,2122,2123,2124,1755,1756,2126,0,0,0,0,0,2122,2147485404,2147485403,2124,2125,2126,0,2138,2139,2140,0,0,0,0,0,0,0,0,0,0,0,0,0,0,0,0,0,0,0,0,0,0,0,0,
0,0,0,0,0,2122,2123,2124,2125,2126,2190,0,0,0,2122,2122,2186,2186,2187,2188,2189,2190,0,2073,0,0,0,2073,0,0,0,0,0,0,0,0,0,0,0,0,0,0,0,0,0,0,0,0,0,0,
0,0,0,0,0,2122,2122,2122,2122,2122,2122,2122,2122,2122,2186,2186,2186,2187,2188,2189,2190,0,0,2137,0,0,0,2137,0,0,0,0,2074,2075,2076,0,0,0,0,0,0,0,0,0,0,0,0,0,0,0,
0,0,0,0,0,2186,2186,2186,2186,2186,2186,2186,2186,2186,2186,2187,2188,2189,2190,0,0,0,0,0,0,0,0,0,0,0,0,0,2138,2139,2140,0,0,0,0,0,0,0,0,0,0,0,0,0,0,0,
0,0,0,0,0,0,0,0,0,0,0,0,0,0,0,0,2313,2313,2313,0,0,0,0,0,0,0,0,0,0,0,0,0,0,0,0,0,0,0,0,0,0,0,0,0,0,0,0,0,0,0,
0,0,0,0,0,0,0,0,0,0,0,0,0,0,0,0,0,0,0,0,0,0,0,0,0,0,0,0,0,0,0,0,0,0,0,0,0,0,0,0,0,0,0,0,0,0,0,0,0,0,
0,0,0,0,0,0,0,0,0,0,0,0,0,0,0,0,0,0,0,0,0,0,0,0,0,0,0,0,0,0,0,0,0,0,0,0,0,0,0,0,0,0,0,0,0,0,0,0,0,0,
0,0,0,0,0,0,0,0,0,0,0,0,0,0,0,0,0,0,0,0,0,0,0,0,0,0,0,0,0,0,0,0,0,0,0,0,0,0,0,0,0,0,0,0,0,0,0,0,0,0,
0,0,0,0,0,0,0,0,0,0,0,0,0,0,0,0,0,0,0,0,0,0,0,0,0,0,0,0,0,0,0,0,0,0,0,0,0,0,0,0,0,0,0,0,0,0,0,0,0,0,
0,0,0,0,0,0,0,0,0,0,0,0,0,0,0,0,0,0,0,0,0,0,0,0,0,0,0,0,0,0,0,0,0,0,0,0,0,0,0,0,0,0,0,0,0,0,0,0,0,0,
0,0,0,0,0,0,0,0,0,0,0,0,0,0,0,0,0,0,0,0,0,0,0,0,0,0,0,0,0,0,0,0,0,0,0,0,0,0,0,0,0,0,0,0,0,0,0,0,0,0,
0,0,0,0,0,0,0,0,0,0,0,0,0,0,0,0,0,0,0,0,0,0,0,0,0,0,0,0,0,0,0,0,0,0,0,0,0,0,0,0,0,0,0,0,0,0,0,0,0,0,
0,0,0,0,0,0,0,0,0,0,0,0,0,0,0,0,0,0,0,0,0,0,0,0,0,0,0,0,0,0,0,0,0,0,0,0,0,0,0,0,0,0,0,0,0,0,0,0,0,0,
0,0,0,0,0,0,0,0,0,0,0,0,0,0,0,0,0,0,0,0,0,0,0,0,0,0,0,0,0,0,0,0,0,0,0,0,0,0,0,0,0,0,0,0,0,0,0,0,0,0,
0,0,0,0,0,0,0,0,0,0,0,0,0,0,0,0,0,0,0,0,0,0,0,0,0,0,0,0,0,0,0,0,0,0,0,0,0,0,0,0,0,0,0,0,0,0,0,0,0,0,
0,0,0,0,0,0,0,0,0,0,0,0,0,0,0,0,0,0,0,0,0,0,0,0,0,0,0,0,0,0,0,0,0,0,0,0,0,0,0,0,0,0,0,0,0,0,0,0,0,0
</data>
 </layer>
 <layer id="3" name="AbovePlayer" width="50" height="50">
  <data encoding="csv">
3213,3213,3213,3213,3213,3213,3213,3213,1691,1692,0,0,0,0,0,0,0,2147485340,2147485339,0,3213,3213,3213,3213,3213,3213,3277,3277,3277,0,0,0,0,0,0,0,0,0,0,0,0,0,0,0,0,0,0,0,0,0,
3213,3213,3213,3213,3213,3213,3213,3213,1678,1756,0,0,0,0,0,0,0,2147485404,1678,0,3277,3277,3277,3213,3213,3213,3277,3272,0,0,0,0,0,0,0,0,0,0,0,0,0,0,0,0,0,0,0,0,0,0,
3277,3277,3213,3213,3213,3213,3213,3213,1742,0,0,0,0,0,0,0,0,0,1742,0,3277,3213,3277,3277,3277,3277,3277,3272,0,0,0,0,0,0,0,0,0,0,0,0,0,0,0,0,0,0,0,0,0,0,
3213,3213,3213,3213,3213,3213,3213,3213,3213,0,0,0,0,0,0,0,0,0,0,0,3277,3277,3277,3277,3277,3213,3277,3272,0,0,0,0,0,0,0,0,0,0,0,0,0,0,0,0,0,0,0,0,0,0,
3277,3277,3277,3213,3213,3213,3213,3277,3277,0,0,0,0,0,0,0,0,0,0,0,3213,3213,3213,3277,3213,3213,3277,3272,0,0,0,0,0,0,0,0,0,0,0,0,0,0,0,0,0,0,0,0,0,0,
3213,3213,3213,3213,3213,3213,3213,0,0,0,0,0,0,0,0,0,0,0,0,0,3213,3277,3277,3277,3213,3277,3277,0,0,0,1883,0,0,0,0,0,0,0,0,0,0,0,0,0,0,0,0,0,0,0,
3277,3277,3277,3277,3277,3277,3277,0,1499,1500,0,0,0,0,0,0,0,2147485148,2147485147,0,3277,3277,3277,3277,3277,3277,3277,0,0,0,0,0,0,0,0,0,0,0,0,0,0,0,0,0,0,0,0,0,0,0,
0,0,0,0,0,0,0,1502,1678,1564,0,0,0,0,0,0,0,2147485212,1678,1504,0,0,0,0,0,0,0,0,0,0,0,0,0,0,0,0,0,0,0,0,0,0,0,0,0,0,0,0,0,0,
1678,1678,1678,1678,1678,1678,1678,1678,1742,0,0,0,0,0,0,0,0,0,1742,1678,0,0,0,0,1990,1678,2053,1734,0,0,0,0,0,0,0,1678,0,0,0,0,0,0,0,0,0,0,0,0,0,0,
1742,1742,1742,1742,1742,1742,1742,1742,1742,0,0,0,0,0,0,0,0,0,0,1742,0,0,0,0,0,1742,0,0,0,0,0,0,0,0,0,1742,0,0,0,0,0,0,0,0,0,0,0,0,0,0,
0,0,0,0,0,0,0,0,0,0,0,0,0,0,0,0,0,0,0,0,0,0,0,0,0,0,0,0,0,0,0,0,0,0,0,0,0,0,0,0,0,0,0,0,0,0,0,0,0,0,
0,0,0,0,0,0,0,0,0,0,0,0,0,0,0,0,0,0,0,0,0,0,0,0,0,0,0,0,0,0,0,0,0,0,0,0,0,0,0,0,0,0,0,0,0,0,0,0,0,0,
0,0,0,0,0,0,0,0,0,0,0,0,0,0,0,0,0,0,0,0,0,0,0,0,0,0,0,0,0,0,0,0,0,0,0,0,0,0,0,0,0,0,0,0,0,0,0,0,0,0,
0,0,0,0,0,0,0,0,0,0,0,0,0,0,0,0,0,0,0,0,0,0,0,0,0,0,0,0,0,0,0,0,0,0,0,0,0,0,0,0,0,0,0,0,0,0,0,0,0,0,
0,0,0,0,0,0,0,0,0,0,0,0,0,0,0,0,0,0,0,0,0,0,0,0,0,0,0,0,0,0,0,0,0,0,0,0,0,0,0,0,0,0,0,0,0,0,0,0,0,0,
0,0,0,0,0,0,0,0,0,0,0,0,0,0,0,0,0,0,0,0,0,0,0,0,0,0,0,0,0,0,0,0,0,0,0,0,0,0,0,0,0,0,0,0,0,0,0,0,0,0,
0,0,0,0,0,0,0,0,0,0,0,0,0,0,0,0,0,0,0,0,0,0,0,0,0,0,0,0,0,0,0,0,0,0,0,0,0,0,0,0,0,0,0,0,0,0,0,0,0,0,
0,0,0,0,0,0,0,1502,0,0,0,0,0,0,0,0,0,0,0,1504,0,0,0,0,0,0,0,0,0,0,0,0,0,0,0,0,0,0,0,0,0,0,0,0,0,0,0,0,0,0,
1678,0,1926,0,0,0,0,1678,1499,1500,0,0,0,0,0,0,0,2147485148,2147485147,1678,0,0,0,0,1734,1678,1678,1678,1678,1678,1678,1678,1678,1678,1678,1678,0,0,0,0,0,0,0,0,0,0,0,0,0,0,
1742,0,0,0,0,0,0,1742,1678,1564,0,0,0,0,0,0,0,2147485212,1678,1742,0,0,0,0,0,1742,1742,1742,1742,1742,1742,1742,1742,1742,1742,1742,0,0,0,0,0,0,0,0,0,0,0,0,0,0,
3213,3213,3213,3213,3213,3213,3213,0,1742,0,0,0,0,0,0,0,0,0,1742,3213,3213,3213,3213,3213,3213,3213,3213,3213,3213,3213,0,0,0,0,0,0,0,0,0,0,0,0,0,0,0,0,0,0,0,0,
3213,3213,3213,3213,3213,3213,3213,3213,0,0,0,0,0,0,0,0,0,0,3213,3277,3277,3277,3277,3277,3277,3277,3213,3213,3213,3277,0,0,0,0,0,0,0,0,0,0,0,0,0,0,0,0,0,0,0,0,
3213,3213,3213,3213,3213,3213,3213,3213,1627,1628,0,0,0,0,0,0,0,2147485276,2147485275,3277,3277,3277,3277,3277,3277,3277,3213,3277,3277,0,0,0,0,0,0,0,0,0,0,0,0,0,0,0,0,0,0,0,0,0,
3213,3213,3213,3213,3277,3277,3277,3277,1691,1692,0,0,0,0,0,0,0,2147485340,2147485339,3277,3277,3277,3277,3277,3277,3277,3277,0,0,0,0,0,0,0,0,0,0,0,0,0,0,0,0,0,0,0,0,0,0,0,
3213,3213,3213,3213,3213,3213,3213,3213,1678,1756,0,0,0,0,0,0,0,2147485404,1678,3277,3277,3277,3277,3277,3277,3277,3277,3213,3213,3213,3213,3213,3213,3213,0,0,0,0,0,0,0,0,0,0,0,0,0,0,0,0,
3213,3213,3213,3213,3277,3277,3277,3277,1742,0,0,0,3213,3213,3213,3213,3213,3213,1742,3213,3213,3277,3277,3277,3277,3277,3277,3277,3277,3277,3277,3277,3277,3277,0,0,0,0,0,0,0,0,0,0,0,0,0,0,0,0,
3213,3213,3213,3213,3213,3213,3213,3213,3213,3213,3213,3213,3277,3277,3277,3277,3277,3277,3277,3277,3277,3277,3277,3277,3277,3277,3277,0,0,0,0,0,0,0,0,0,0,0,0,0,0,0,0,0,0,0,0,0,0,0,
3277,3277,3277,3277,3277,3277,3277,3277,3277,3277,3277,3277,0,0,0,0,0,0,0,0,0,0,0,0,0,0,0,0,0,0,0,0,0,0,0,0,0,0,0,0,0,0,0,0,0,0,0,0,0,0,
0,0,0,0,0,0,0,0,0,0,0,0,0,0,0,0,0,0,0,0,0,0,0,0,0,0,0,0,0,0,0,0,0,0,0,0,0,0,0,0,0,0,0,0,0,0,0,0,0,0,
0,0,0,0,0,0,0,0,0,0,0,0,0,0,0,0,0,0,0,0,0,0,0,0,0,0,0,0,0,0,0,0,0,0,0,0,0,0,0,0,0,0,0,0,0,0,0,0,0,0,
0,0,0,0,0,0,0,0,0,0,0,0,0,0,0,0,0,0,0,0,0,0,0,0,0,0,0,0,0,0,0,0,0,0,0,0,0,0,0,0,0,0,0,0,0,0,0,0,0,0,
0,0,0,0,0,0,0,0,0,0,0,0,0,0,0,0,0,0,0,0,0,0,0,0,0,0,0,0,0,0,0,0,0,0,0,0,0,0,0,0,0,0,0,0,0,0,0,0,0,0,
0,0,0,0,0,0,0,0,1627,1628,0,0,0,0,0,0,0,2147485276,2147485275,0,0,0,0,0,0,0,0,0,0,0,0,0,0,0,0,0,0,0,0,0,0,0,0,0,0,0,0,0,0,0,
0,0,0,0,0,0,0,0,1691,1692,0,0,0,0,0,0,0,2147485340,2147485339,0,0,0,0,0,0,0,0,0,0,0,0,0,0,0,0,0,0,0,0,0,0,0,0,0,0,0,0,0,0,0,
0,0,0,0,0,0,0,0,1741,1756,0,0,0,0,0,0,0,2147485404,1678,0,0,0,0,0,0,0,0,0,0,0,0,0,0,0,0,0,0,0,0,0,0,0,0,0,0,0,0,0,0,0,
0,0,0,0,0,0,0,0,0,0,0,0,0,0,0,0,0,0,1742,0,0,0,0,0,0,0,0,0,0,0,0,0,0,0,0,0,0,0,0,0,0,0,0,0,0,0,0,0,0,0,
0,0,0,0,0,0,0,0,0,0,0,0,0,0,0,0,0,0,0,0,0,0,0,0,0,0,0,0,0,0,0,0,0,0,0,0,0,0,0,0,0,0,0,0,0,0,0,0,0,0,
0,0,0,0,0,0,0,0,0,0,0,0,0,0,0,0,0,0,0,0,0,0,0,0,0,0,0,0,0,0,0,0,0,0,0,0,0,0,0,0,0,0,0,0,0,0,0,0,0,0,
0,0,0,0,0,0,0,0,0,0,0,0,0,0,0,0,0,0,0,0,0,0,0,0,0,0,0,0,0,0,0,0,0,0,0,0,0,0,0,0,0,0,0,0,0,0,0,0,0,0,
0,0,0,0,0,0,0,0,0,0,0,0,0,0,0,0,0,0,0,0,0,0,0,0,0,0,0,0,0,0,0,0,0,0,0,0,0,0,0,0,0,0,0,0,0,0,0,0,0,0,
0,0,0,0,0,0,0,0,0,0,0,0,0,0,0,0,0,0,0,0,0,0,0,0,0,0,0,0,0,0,0,0,0,0,0,0,0,0,0,0,0,0,0,0,0,0,0,0,0,0,
0,0,0,0,0,0,0,0,0,0,0,0,0,0,0,0,0,0,0,0,0,0,0,0,0,0,0,0,0,0,0,0,0,0,0,0,0,0,0,0,0,0,0,0,0,0,0,0,0,0,
0,0,0,0,0,0,0,0,0,0,0,0,0,0,0,0,0,0,0,0,0,0,0,0,0,0,0,0,0,0,0,0,0,0,0,0,0,0,0,0,0,0,0,0,0,0,0,0,0,0,
0,0,0,0,0,0,0,0,0,0,0,0,0,0,0,0,0,0,0,0,0,0,0,0,0,0,0,0,0,0,0,0,0,0,0,0,0,0,0,0,0,0,0,0,0,0,0,0,0,0,
0,0,0,0,0,0,0,0,0,0,0,0,0,0,0,0,0,0,0,0,0,0,0,0,0,0,0,0,0,0,0,0,0,0,0,0,0,0,0,0,0,0,0,0,0,0,0,0,0,0,
0,0,0,0,0,0,0,0,0,0,0,0,0,0,0,0,0,0,0,0,0,0,0,0,0,0,0,0,0,0,0,0,0,0,0,0,0,0,0,0,0,0,0,0,0,0,0,0,0,0,
0,0,0,0,0,0,0,0,0,0,0,0,0,0,0,0,0,0,0,0,0,0,0,0,0,0,0,0,0,0,0,0,0,0,0,0,0,0,0,0,0,0,0,0,0,0,0,0,0,0,
0,0,0,0,0,0,0,0,0,0,0,0,0,0,0,0,0,0,0,0,0,0,0,0,0,0,0,0,0,0,0,0,0,0,0,0,0,0,0,0,0,0,0,0,0,0,0,0,0,0,
0,0,0,0,0,0,0,0,0,0,0,0,0,0,0,0,0,0,0,0,0,0,0,0,0,0,0,0,0,0,0,0,0,0,0,0,0,0,0,0,0,0,0,0,0,0,0,0,0,0,
0,0,0,0,0,0,0,0,0,0,0,0,0,0,0,0,0,0,0,0,0,0,0,0,0,0,0,0,0,0,0,0,0,0,0,0,0,0,0,0,0,0,0,0,0,0,0,0,0,0
</data>
 </layer>
 <objectgroup id="4" name="Spawns">
  <object id="1" name="PlayerSpawn" x="152" y="152"/>
 </objectgroup>
</map>
